src/img/Background.svg

<?xml version="1.0" encoding="utf-8"?>
<!-- Generator: Adobe Illustrator 25.0.1, SVG Export Plug-In . SVG Version: 6.00 Build 0)  -->
<svg version="1.1" id="Layer_1" xmlns="http://www.w3.org/2000/svg" xmlns:xlink="http://www.w3.org/1999/xlink" x="0px" y="0px"
	 viewBox="0 0 1920 1080" style="enable-background:new 0 0 1920 1080;" xml:space="preserve">
<style type="text/css">
	.st0{fill:#4983FF;}
	.st1{fill:url(#SVGID_1_);}
	.st2{fill:url(#SVGID_2_);}
	.st3{fill:url(#SVGID_3_);}
	.st4{fill:#FFFFFF;}
	.st5{opacity:0.6;fill:#FFFFFF;enable-background:new    ;}
	.st6{opacity:0.8;fill:#FFFFFF;enable-background:new    ;}
	.st7{opacity:0.9;fill:#FFFFFF;enable-background:new    ;}
	.st8{fill:url(#SVGID_4_);}
</style>
<g id="skyStuff">
	<g id="sky">
		<rect class="st0" width="1920" height="1054.5"/>
		
			<linearGradient id="SVGID_1_" gradientUnits="userSpaceOnUse" x1="-9.8292" y1="970.0219" x2="1918.1208" y2="142.7819" gradientTransform="matrix(1 0 0 -1 0 1080)">
			<stop  offset="0.1" style="stop-color:#49DBE1;stop-opacity:0.85"/>
			<stop  offset="0.94" style="stop-color:#4989FD;stop-opacity:0.99"/>
			<stop  offset="1" style="stop-color:#4983FF"/>
		</linearGradient>
		<rect class="st1" width="1920" height="1052.2"/>
	</g>
	<g id="Layer_105">
		
			<linearGradient id="SVGID_2_" gradientUnits="userSpaceOnUse" x1="1087.7" y1="789.5399" x2="1613.2299" y2="646.1599" gradientTransform="matrix(1 0 0 -1 0 1080)">
			<stop  offset="0.1" style="stop-color:#99CCCC;stop-opacity:0.4"/>
			<stop  offset="0.28" style="stop-color:#92C6D0;stop-opacity:0.37"/>
			<stop  offset="0.52" style="stop-color:#7EB4DD;stop-opacity:0.3"/>
			<stop  offset="0.79" style="stop-color:#5E96F1;stop-opacity:0.18"/>
			<stop  offset="0.94" style="stop-color:#4983FF;stop-opacity:0.1"/>
		</linearGradient>
		<path class="st2" d="M1924.6,260.5c-16.3,16.7-8.1,108.7-27.7,136.7c-122.7,175.1-671.4,416.4-744.2,417.2
			c-70.8,0.8,157.8-223.1,107.8-286c-26.6-33.5-106-2-139.7,6.1c-88.9,21.5-239.9,31.2-229.2,12.8c43.6-74.8,175.2-226.8,277.1-312
			c126.3-105.6,245.3-169.3,367.1-232.7h355.9c3.5,4.9,5.2,7.9,5.2,7.9s5.5,7.6,13.1,20.4c4.4,7.3,9.4,16.3,14.6,26.6
			C1952.1,111.8,1982.4,201.4,1924.6,260.5z"/>
	</g>
	<g id="Layer_106">
		
			<linearGradient id="SVGID_3_" gradientUnits="userSpaceOnUse" x1="214.4169" y1="607.9549" x2="674.7769" y2="984.5749" gradientTransform="matrix(1 0 0 -0.8 0 950.4)">
			<stop  offset="0.1" style="stop-color:#2D8BFF;stop-opacity:0.4"/>
			<stop  offset="0.21" style="stop-color:#3293FC;stop-opacity:0.5"/>
			<stop  offset="0.47" style="stop-color:#3CA3F6;stop-opacity:0.72"/>
			<stop  offset="0.69" style="stop-color:#43AFF1;stop-opacity:0.87"/>
			<stop  offset="0.88" style="stop-color:#47B6EE;stop-opacity:0.97"/>
			<stop  offset="1" style="stop-color:#49B9ED"/>
		</linearGradient>
		<path class="st3" d="M891.6,182.2c-83.1,73.5-275.1,216.5-354.8,251.2s-167.6,40.9-214.5,138.9c-1.5,3.2-3.2,6.4-5,9.5
			c-31.4-55.1-101.5-74.3-156.6-42.9c-55.1,31.4-74.3,101.5-42.9,156.6c3.8,6.8,8.4,13.1,13.5,18.9c-7.5,2.7-11.9,4.1-11.9,4.1
			L66,593.8c0,0,114-217.5,245.4-340.1s60.2-73.5,204-175.7C561,45.7,595.4,20,623.9,0h349.5C984.2,33.1,974.7,108.7,891.6,182.2z"
			/>
	</g>
	<g id="Clouds">
		<path class="st4" d="M430.6,416.1H71.8c-0.4-2.4-0.7-4.8-0.7-7.2c0-22,17.8-39.8,39.8-39.8c3.4,0,6.8,0.4,10.1,1.3
			c-9.7-22,0.3-47.7,22.3-57.4c14.1-6.2,30.5-4.5,43,4.5c4.4-18,18.7-31.2,35.7-31.2s31.1,13,35.6,30.8h1.5
			c24.1,0,43.7,13.2,43.7,29.6c0,2.3-0.4,4.7-1.2,6.9c3.9-0.5,7.9-0.7,11.8-0.7c30,0,54.3,12.8,54.3,28.5c0,1.8-0.3,3.6-0.9,5.2
			c5.4,2.2,9,7.5,8.9,13.3c0.9-0.1,1.8-0.1,2.7-0.1c9.8,0,18.1,4.1,21,9.8C410.2,404.9,422.7,407.5,430.6,416.1L430.6,416.1z"/>
		<path class="st4" d="M1767.8,294.6h-448.3c4.6-16.4,18.2-30.8,37.1-37c4.5-1.5,9.1-2.4,13.8-2.8c-0.7-1.5-1.3-3-1.8-4.5
			c-9.1-27.7,12.5-59.6,48.2-71.3c11.2-3.8,23.1-5.1,34.9-3.9c-0.1-1.1-0.1-2.1-0.1-3.2c0-40.4,32.7-73.2,73.1-73.3
			c40.4,0,73.2,32.7,73.3,73.1c0,9.2-1.7,18.3-5.1,26.8c8.5-2.6,16.2-1.6,20.1,3.4c4.6,5.9,2.2,15.8-5,24.4
			c18.9-1.5,34.2,3.9,39.3,15.5c0.7,1.6,1.2,3.2,1.4,4.9h0.1c34.5-2.2,63.5,11.8,64.9,31.1c2.6-0.2,5.2-0.3,7.9-0.3
			C1744.3,277.6,1763.2,284.9,1767.8,294.6z"/>
		<path class="st5" d="M1227.4,429.1c-6.4,0-12.8,0.8-19,2.4c-4.3-10.9-14.7-18-26.4-18c-2.2,0-4.4,0.3-6.5,0.8
			c-5.2-20.2-20.7-34.8-39-34.8c-20.2,0-36.9,17.8-40.2,41.1c-1.5-0.1-3-0.1-4.5-0.1c-21.3,0-38.6,9.9-38.6,22.2v0.2
			c-9.8-2.8-20.3,1.2-25.7,9.9h241.8c0-0.3,0-0.6,0-1C1269.4,439.2,1250.6,429.1,1227.4,429.1z"/>
		<path class="st5" d="M412.5,626.6c0,0.2,0,0.5,0,0.7h206c-3.9-5.2-10-8.2-16.5-8.1c-1.8,0-3.6,0.2-5.4,0.7v-0.1
			c0-9.2-14.7-16.7-32.9-16.7c-1.3,0-2.6,0-3.8,0.1c-2.8-17.6-17.1-30.9-34.3-30.9c-15.6,0-28.8,11-33.2,26.2
			c-1.8-0.4-3.7-0.6-5.6-0.6c-10.2,0-19,5.6-22.5,13.6c-5.3-1.2-10.7-1.9-16.2-1.8C428.5,609.7,412.5,617.3,412.5,626.6z"/>
		<path class="st6" d="M1920,22.4v76.3h-109c-0.4-1-0.6-2-0.6-3.1c0-12.2,28.7-22.2,65.2-23.2v-0.1c0-12.5,9-23.2,21.4-25.3
			c0-0.1,0-0.2,0-0.4C1896.9,33.7,1907.1,23.1,1920,22.4z"/>
		<path class="st7" d="M0.4,140.2v50h109c0.4-0.6,0.6-1.3,0.6-2c0-8-28.7-14.6-65.2-15.2l0,0c0-8.3-9.2-15.2-21.4-16.6
			c0-0.1,0-0.2,0-0.2C23.5,147.6,13.3,140.6,0.4,140.2z"/>
	</g>
</g>
<g id="ground">
	
		<radialGradient id="SVGID_4_" cx="960" cy="253.8961" r="975.75" gradientTransform="matrix(1 0 0 -0.67 0 1205.72)" gradientUnits="userSpaceOnUse">
		<stop  offset="0" style="stop-color:#E3DDCD"/>
		<stop  offset="0.42" style="stop-color:#DFDCD1"/>
		<stop  offset="0.86" style="stop-color:#D3D9DD"/>
		<stop  offset="0.87" style="stop-color:#D3D9DE"/>
	</radialGradient>
	<rect y="997.8" class="st8" width="1920" height="82.2"/>
</g>
</svg>

<svg width="1920" height="1052" viewBox="0 0 1920 1052" fill="none" xmlns="http://www.w3.org/2000/svg">
<g clip-path="url(#clip0)">
<path d="M1920 0H0V1054.5H1920V0Z" fill="#4983FF"/>
<path d="M1920 0H0V1052.2H1920V0Z" fill="url(#paint0_linear)"/>
<path d="M1924.6 260.5C1908.3 277.2 1916.5 369.2 1896.9 397.2C1774.2 572.3 1225.5 813.6 1152.7 814.4C1081.9 815.2 1310.5 591.3 1260.5 528.4C1233.9 494.9 1154.5 526.4 1120.8 534.5C1031.9 556 880.9 565.7 891.6 547.3C935.2 472.5 1066.8 320.5 1168.7 235.3C1295 129.7 1414 66 1535.8 2.59998H1891.7C1895.2 7.49998 1896.9 10.5 1896.9 10.5C1896.9 10.5 1902.4 18.1 1910 30.9C1914.4 38.2 1919.4 47.2 1924.6 57.5C1952.1 111.8 1982.4 201.4 1924.6 260.5Z" fill="url(#paint1_linear)"/>
<path d="M891.6 182.2C808.5 255.7 616.5 398.7 536.8 433.4C457.1 468.1 369.2 474.3 322.3 572.3C320.8 575.5 319.1 578.7 317.3 581.8C285.9 526.7 215.8 507.5 160.7 538.9C105.6 570.3 86.4 640.4 117.8 695.5C121.6 702.3 126.2 708.6 131.3 714.4C123.8 717.1 119.4 718.5 119.4 718.5L66 593.8C66 593.8 180 376.3 311.4 253.7C442.8 131.1 371.6 180.2 515.4 78C561 45.7 595.4 20 623.9 0H973.4C984.2 33.1 974.7 108.7 891.6 182.2Z" fill="url(#paint2_linear)"/>
<path d="M430.6 416.1H71.8001C71.4001 413.7 71.1001 411.3 71.1001 408.9C71.1001 386.9 88.9001 369.1 110.9 369.1C114.3 369.1 117.7 369.5 121 370.4C111.3 348.4 121.3 322.7 143.3 313C157.4 306.8 173.8 308.5 186.3 317.5C190.7 299.5 205 286.3 222 286.3C239 286.3 253.1 299.3 257.6 317.1H259.1C283.2 317.1 302.8 330.3 302.8 346.7C302.8 349 302.4 351.4 301.6 353.6C305.5 353.1 309.5 352.9 313.4 352.9C343.4 352.9 367.7 365.7 367.7 381.4C367.7 383.2 367.4 385 366.8 386.6C372.2 388.8 375.8 394.1 375.7 399.9C376.6 399.8 377.5 399.8 378.4 399.8C388.2 399.8 396.5 403.9 399.4 409.6C410.2 404.9 422.7 407.5 430.6 416.1Z" fill="white"/>
<path d="M1767.8 294.6H1319.5C1324.1 278.2 1337.7 263.8 1356.6 257.6C1361.1 256.1 1365.7 255.2 1370.4 254.8C1369.7 253.3 1369.1 251.8 1368.6 250.3C1359.5 222.6 1381.1 190.7 1416.8 179C1428 175.2 1439.9 173.9 1451.7 175.1C1451.6 174 1451.6 173 1451.6 171.9C1451.6 131.5 1484.3 98.7 1524.7 98.6C1565.1 98.6 1597.9 131.3 1598 171.7C1598 180.9 1596.3 190 1592.9 198.5C1601.4 195.9 1609.1 196.9 1613 201.9C1617.6 207.8 1615.2 217.7 1608 226.3C1626.9 224.8 1642.2 230.2 1647.3 241.8C1648 243.4 1648.5 245 1648.7 246.7H1648.8C1683.3 244.5 1712.3 258.5 1713.7 277.8C1716.3 277.6 1718.9 277.5 1721.6 277.5C1744.3 277.6 1763.2 284.9 1767.8 294.6Z" fill="white"/>
<path opacity="0.6" d="M1227.4 429.1C1221 429.1 1214.6 429.9 1208.4 431.5C1204.1 420.6 1193.7 413.5 1182 413.5C1179.8 413.5 1177.6 413.8 1175.5 414.3C1170.3 394.1 1154.8 379.5 1136.5 379.5C1116.3 379.5 1099.6 397.3 1096.3 420.6C1094.8 420.5 1093.3 420.5 1091.8 420.5C1070.5 420.5 1053.2 430.4 1053.2 442.7V442.9C1043.4 440.1 1032.9 444.1 1027.5 452.8H1269.3C1269.3 452.5 1269.3 452.2 1269.3 451.8C1269.4 439.2 1250.6 429.1 1227.4 429.1Z" fill="white"/>
<path opacity="0.6" d="M412.5 626.6C412.5 626.8 412.5 627.1 412.5 627.3H618.5C614.6 622.1 608.5 619.1 602 619.2C600.2 619.2 598.4 619.4 596.6 619.9V619.8C596.6 610.6 581.9 603.1 563.7 603.1C562.4 603.1 561.1 603.1 559.9 603.2C557.1 585.6 542.8 572.3 525.6 572.3C510 572.3 496.8 583.3 492.4 598.5C490.6 598.1 488.7 597.9 486.8 597.9C476.6 597.9 467.8 603.5 464.3 611.5C459 610.3 453.6 609.6 448.1 609.7C428.5 609.7 412.5 617.3 412.5 626.6Z" fill="white"/>
<path opacity="0.8" d="M1920 22.4V98.7H1811C1810.6 97.7 1810.4 96.7 1810.4 95.6C1810.4 83.4 1839.1 73.4 1875.6 72.4V72.3C1875.6 59.8 1884.6 49.1 1897 47C1897 46.9 1897 46.8 1897 46.6C1896.9 33.7 1907.1 23.1 1920 22.4Z" fill="white"/>
<path opacity="0.9" d="M0.399902 140.2V190.2H109.4C109.8 189.6 110 188.9 110 188.2C110 180.2 81.2999 173.6 44.7999 173C44.7999 164.7 35.5999 157.8 23.3999 156.4C23.3999 156.3 23.3999 156.2 23.3999 156.2C23.4999 147.6 13.2999 140.6 0.399902 140.2Z" fill="white"/>
</g>
<defs>
<linearGradient id="paint0_linear" x1="-9.82922" y1="109.978" x2="1918.12" y2="937.218" gradientUnits="userSpaceOnUse">
<stop offset="0.1" stop-color="#49DBE1" stop-opacity="0.85"/>
<stop offset="0.94" stop-color="#4989FD" stop-opacity="0.99"/>
<stop offset="1" stop-color="#4983FF"/>
</linearGradient>
<linearGradient id="paint1_linear" x1="1087.7" y1="290.46" x2="1613.23" y2="433.84" gradientUnits="userSpaceOnUse">
<stop offset="0.1" stop-color="#99CCCC" stop-opacity="0.4"/>
<stop offset="0.28" stop-color="#92C6D0" stop-opacity="0.37"/>
<stop offset="0.52" stop-color="#7EB4DD" stop-opacity="0.3"/>
<stop offset="0.79" stop-color="#5E96F1" stop-opacity="0.18"/>
<stop offset="0.94" stop-color="#4983FF" stop-opacity="0.1"/>
</linearGradient>
<linearGradient id="paint2_linear" x1="214.417" y1="464.036" x2="590.059" y2="79.896" gradientUnits="userSpaceOnUse">
<stop offset="0.1" stop-color="#2D8BFF" stop-opacity="0.4"/>
<stop offset="0.21" stop-color="#3293FC" stop-opacity="0.5"/>
<stop offset="0.47" stop-color="#3CA3F6" stop-opacity="0.72"/>
<stop offset="0.69" stop-color="#43AFF1" stop-opacity="0.87"/>
<stop offset="0.88" stop-color="#47B6EE" stop-opacity="0.97"/>
<stop offset="1" stop-color="#49B9ED"/>
</linearGradient>
<clipPath id="clip0">
<rect width="1920" height="1052" fill="white"/>
</clipPath>
</defs>
</svg>
